icons/outline/wheat-off.svg

<!--
category: Food
tags: [food, nature, greenary, grow, soil, harvest, plant, leaf, tree, flower]
version: "1.0"
-->
<svg 
   width="24" 
   height="24" 
   viewBox="0 0 24 24" 
   fill="none" 
   xmlns="http://www.w3.org/2000/svg"
   stroke="currentColor" 
   stroke-width="2" 
   stroke-linecap="round" 
   stroke-linejoin="round"
>
   <path d="M3 3L21 21"/>
   <path d="M12 21.5V17.75" />
   <path d="M5.91551 9.48956L5.48551 11.0943C4.77341 13.7531 6.35116 16.4858 9.00968 17.1985C10.0062 17.4666 11.0032 17.733 12 18V14.5601C11.8358 12.4547 10.3628 10.6814 8.32334 10.1337L5.91551 9.48956Z" />
   <path d="M10.2495 4.25055C10.2563 4.24366 10.2631 4.23683 10.2699 4.22998L11.9999 2.5" />
   <path d="M10.27 11.1499C9.68139 10.5613 9.25269 9.8323 9.02441 9.03186" />
   <path d="M14.9879 8.98798C15.2172 8.15448 15.2216 7.27509 15.0006 6.43933C14.7797 5.60357 14.3413 4.84126 13.73 4.22998L12 2.5" />
   <path d="M16.0377 10.0371L18.0845 9.48956L18.5145 11.0943C18.6564 11.6243 18.7074 12.1573 18.6769 12.6766" />
   <path d="M16.5056 16.5053C16.0552 16.812 15.5464 17.0494 14.9904 17.1985C13.9938 17.4666 12.9968 17.733 12 18V14.5601C12.0552 13.8519 12.2586 13.1812 12.5818 12.5821" />
</svg>

<!--
category: Food
tags: [food, nature, greenary, grow, soil, harvest, plant, leaf, tree, flower]
-->
<svg
  xmlns="http://www.w3.org/2000/svg"
  width="24"
  height="24"
  viewBox="0 0 24 24"
  fill="none"
  stroke="currentColor"
  stroke-width="2"
  stroke-linecap="round"
  stroke-linejoin="round"
>
  <path d="M3 3l18 18" />
  <path d="M12 21.5v-3.75" />
  <path d="M5.916 9.49l-.43 1.604c-.712 2.659 .866 5.392 3.524 6.104c.997 .268 1.994 .535 2.99 .802v-3.44c-.164 -2.105 -1.637 -3.879 -3.677 -4.426l-2.407 -.644z" />
  <path d="M10.249 4.251c.007 -.007 .014 -.014 .021 -.021l1.73 -1.73" />
  <path d="M10.27 11.15c-.589 -.589 -1.017 -1.318 -1.246 -2.118" />
  <path d="M14.988 8.988c.229 -.834 .234 -1.713 .013 -2.549c-.221 -.836 -.659 -1.598 -1.271 -2.209l-1.73 -1.73" />
  <path d="M16.038 10.037l2.046 -.547l.431 1.604c.142 .53 .193 1.063 .162 1.583" />
  <path d="M16.506 16.505c-.45 .307 -.959 .544 -1.516 .694c-.997 .268 -1.994 .535 -2.99 .801v-3.44c.055 -.708 .259 -1.379 .582 -1.978" />
</svg>
